src/assets/ikoner/synchronize-4.svg

<?xml version="1.0" encoding="UTF-8"?>
<svg width="24px" height="24px" viewBox="0 0 24 24" version="1.1" xmlns="http://www.w3.org/2000/svg" xmlns:xlink="http://www.w3.org/1999/xlink">
    <title>Fill/19-interface/synchronize-4</title>
    <g id="Fill/19-interface/synchronize-4" stroke="none" stroke-width="1" fill="none" fill-rule="evenodd">
        <path d="M20.657,4.32499997 C18.606,2.41199996 15.935,1.40599996 13.129,1.50999996 C10.262,1.60999996 7.63899998,2.82899996 5.74399997,4.94199997 C4.39099997,6.45099998 3.50999996,8.33099998 3.14999996,10.406 L1.83599996,8.42599999 C1.53099996,7.96599998 0.909999954,7.83999998 0.448999952,8.14599998 C-0.0110000501,8.45199999 -0.136000051,9.07199999 0.169999951,9.53299999 C0.340999951,9.79199999 3.01999996,13.833 3.19899996,14.085 C3.66499997,14.641 4.39399997,14.592 4.77899997,14.106 L8.25299998,10.152 C8.61699999,9.73699999 8.57599999,9.10499999 8.16199998,8.74099999 C7.74599998,8.37599998 7.11499998,8.41699999 6.74899998,8.83199999 L5.14199997,10.662 C5.44799997,8.98899999 6.15299998,7.48099998 7.23299998,6.27699998 C8.76199999,4.57299997 10.881,3.58899996 13.199,3.50799996 C15.47,3.43299996 17.632,4.23799997 19.293,5.78699997 C20.954,7.33499998 21.912,9.43699999 21.99,11.707 C22.071,13.976 21.261,16.14 19.712,17.8 C18.165,19.46 16.062,20.418 13.793,20.497 C13.24,20.516 12.808,20.979 12.828,21.531 C12.846,22.071 13.29,22.497 13.826,22.497 C13.839,22.497 13.85,22.497 13.862,22.496 C16.666,22.398 19.262,21.215 21.175,19.164 C23.09,17.112 24.0890001,14.439 23.99,11.637 C23.892,8.83399999 22.708,6.23799998 20.657,4.32499997 Z" id="Fill/synchronize-4" fill="#0067C5"></path>
    </g>
</svg>

<svg width="24" height="24" xmlns="http://www.w3.org/2000/svg"><path d="M20.657 4.325a10.401 10.401 0 00-7.528-2.815c-2.867.1-5.49 1.319-7.385 3.432C4.391 6.451 3.51 8.331 3.15 10.406l-1.314-1.98A1 1 0 10.17 9.533c.171.259 2.85 4.3 3.029 4.552.466.556 1.195.507 1.58.021l3.474-3.954a1 1 0 00-1.504-1.32l-1.607 1.83c.306-1.673 1.011-3.181 2.091-4.385 1.529-1.704 3.648-2.688 5.966-2.769a8.459 8.459 0 016.094 2.279 8.434 8.434 0 012.697 5.92 8.432 8.432 0 01-2.278 6.093 8.44 8.44 0 01-5.919 2.697 1 1 0 00.033 2l.036-.001a10.43 10.43 0 007.313-3.332 10.42 10.42 0 002.815-7.527 10.432 10.432 0 00-3.333-7.312z" fill="#0067C5" fill-rule="evenodd"/></svg>
